X: 1403
T: Dusky Dinah
B: australian traditional tunes wiki
M:4/4
L:1/8
R: Schottische
Q: 1/4=100
K:C
V:1 
(3GAB|"C"c>B c>G E>G A>B|c2 (3ccc c2 (3cde|"F"f>e f>d "C"e>d e>c|"G"(3Bcd (3cBA G2 (3GAB|
"C"c>B c>e "G"d>c B>e|"F"f2 (3fff f2 (3def|"C"e>c B>A "G7"G>f e>d|"C"c2 (3ccc c2e>f|
g>c' b>ag2e2|(3gag f>e "G"f2d>e|f>b a>gf2d2|"C"e>d (3cde "G"g2e>f|
"C"g>c' b>a g2e2|"F"(3d^cd (3fef a3a|"G7"g>a b>a g>f e>d|"C"c>c "F"c>B "C"c2||
% abcbook-tune_id 6342d53abd6fd885d9981efa


% abcbook-boost 0
% abcbook-tablature 
% abcbook-transpose 
% abcbook-lastupdated 1665324363346
% abcbook-soundfonts 
% abcbook-repeats 1
% NFF Book 2018

